X: 1
T: the Harbour
C: Bert Murray
M: C|
L: 1/8
K: D
|: A2 | "D"d2d2 fedc | d2d2 "A7"A2Bc | "D"dcde "Bm"fagf | "Em"f2e2 "A7"egfe | "D"d2d2 "A"fedc |
| "G"dcdB "D"A2dc | "G"BGBd "A7"ceag | "D"f2"(G)"d2 "D"d2 :: fg | "D"a2af d2fa | "Em"b2bg "A7"e2fg |
| "D"abaf "Bm"dfaf | "Em"g2e2 "A7"e2fg | "D"agfe dcBA | "G"B2dB "D"A2dc | "G"BGBd "A7"ceag | "D"f2"(G)"d2 "D"d2 :|

%%sep 1 1 500

